icons/stimulus.svg

<?xml version="1.0" encoding="UTF-8"?>
<svg width="256px" height="256px" viewBox="0 0 256 256" version="1.1" xmlns="http://www.w3.org/2000/svg" xmlns:xlink="http://www.w3.org/1999/xlink" preserveAspectRatio="xMidYMid">
    <g>
        <path d="M220.013714,143.189333 L220.013714,143.335619 L256,143.335619 L256,188.440381 L203.288381,188.440381 C199.143619,188.440381 192.828952,186.709333 189.293714,184.600381 L176.64,177.16419 C173.104762,175.055238 167.228952,175.055238 163.693714,177.16419 L147.273143,186.782476 C143.737905,188.806095 143.737905,192.26819 147.273143,194.364952 L181.76,214.588952 C185.295238,216.697905 191.634286,218.416762 195.766857,218.416762 L256,218.416762 L256,248.478476 C256,252.623238 252.611048,256 248.466286,256 L7.53371429,256 C3.38048727,255.993312 0.0134137829,252.631687 0,248.478476 L0,218.416762 L60.2453333,218.416762 C65.1394573,218.214207 69.9240981,216.905516 74.24,214.588952 L189.293714,147.017143 C192.828952,144.920381 199.15581,143.189333 203.288381,143.189333 L220.013714,143.189333 L220.013714,143.189333 Z M220.013714,69.4247619 L256,69.4247619 L256,114.95619 L195.754667,114.95619 C190.856997,115.165808 186.071261,116.487304 181.76,118.820571 L66.7062857,187.050667 C62.3950244,189.383934 57.6092889,190.70543 52.711619,190.915048 L0,190.915048 L0,145.383619 L60.2453333,145.383619 C65.1430032,145.174002 69.9287387,143.852505 74.24,141.519238 L189.293714,73.2891429 C193.604976,70.9558758 198.390711,69.6343791 203.288381,69.4247619 L220.013714,69.4247619 L220.013714,69.4247619 Z M248.466286,8.39117136e-16 C252.611048,8.39117136e-16 256,3.38895238 256,7.3752381 L256,37.4857143 L195.754667,37.4857143 C190.860543,37.688269 186.075902,38.99696 181.76,41.3135238 L66.7062857,108.982857 C63.1710476,111.09181 56.8441905,112.822857 52.711619,112.822857 L0,112.822857 L0,67.6571429 L52.711619,67.6571429 C56.856381,67.6571429 63.1710476,69.3881905 66.7062857,71.4971429 L79.36,78.9455238 C82.8952381,81.0544762 88.7710476,81.0544762 92.3062857,78.9455238 L108.726857,69.3150476 C112.262095,67.2792381 112.262095,63.8293333 108.726857,61.7081905 L74.24,41.472 C69.9206518,39.1513936 65.1320511,37.8385919 60.2331429,37.632 L0,37.632 L0,7.52152381 C0.0200615619,3.37108554 3.38324897,0.0133401824 7.53371429,0 L248.466286,0 L248.466286,8.39117136e-16 Z" fill="#000000" fill-rule="nonzero"></path>
    </g>
</svg>

<svg xmlns="http://www.w3.org/2000/svg" viewBox="0 0 256 256">
  <path d="M220.014 143.19v.146H256v45.104h-52.712c-4.144 0-10.46-1.73-13.994-3.84l-12.654-7.436c-3.535-2.109-9.411-2.109-12.946 0l-16.42 9.618c-3.536 2.024-3.536 5.486 0 7.583l34.486 20.224c3.535 2.109 9.874 3.828 14.007 3.828H256v30.061c0 4.145-3.389 7.522-7.534 7.522H7.534A7.546 7.546 0 0 1 0 248.478v-30.061h60.245a32.427 32.427 0 0 0 13.995-3.828l115.054-67.572c3.535-2.097 9.862-3.828 13.994-3.828zm0-73.765H256v45.531h-60.245a32.305 32.305 0 0 0-13.995 3.865L66.706 187.05a32.305 32.305 0 0 1-13.994 3.864H0v-45.531h60.245a32.305 32.305 0 0 0 13.995-3.865l115.054-68.23a32.305 32.305 0 0 1 13.994-3.864zM248.466 0C252.611 0 256 3.389 256 7.375v30.11h-60.245a32.427 32.427 0 0 0-13.995 3.829L66.706 108.983c-3.535 2.109-9.862 3.84-13.994 3.84H0V67.657h52.712c4.144 0 10.459 1.731 13.994 3.84l12.654 7.449c3.535 2.108 9.411 2.108 12.946 0l16.42-9.631c3.536-2.036 3.536-5.486 0-7.607L74.24 41.472a32.488 32.488 0 0 0-14.007-3.84H0V7.522A7.558 7.558 0 0 1 7.534 0z"/>
</svg>
